images/icons/icon-ice-cream.svg

<svg width="24" height="24" viewBox="0 0 24 24" fill="none" xmlns="http://www.w3.org/2000/svg">
<path d="M12 0C10.5315 0.00170022 9.11447 0.541271 8.01674 1.51674C6.91902 2.4922 6.21664 3.83598 6.04235 5.29412H6V17.2094H18V5.29412H17.9576C17.7834 3.83598 17.081 2.4922 15.9833 1.51674C14.8855 0.541271 13.4685 0.00170022 12 0ZM16.5882 15.7976H7.41176V9.28941C7.54269 9.44729 7.71008 9.57092 7.89947 9.64963C8.08886 9.72833 8.29457 9.75976 8.49882 9.74118C9.40941 9.74118 10.0024 9.23294 10.0024 8.59059V7.97647C9.99318 7.89173 10.0019 7.80601 10.0281 7.72489C10.0542 7.64376 10.0972 7.56905 10.1541 7.50562C10.211 7.44219 10.2807 7.39145 10.3585 7.35672C10.4364 7.322 10.5206 7.30405 10.6059 7.30405C10.6911 7.30405 10.7754 7.322 10.8532 7.35672C10.9311 7.39145 11.0007 7.44219 11.0577 7.50562C11.1146 7.56905 11.1575 7.64376 11.1837 7.72489C11.2098 7.80601 11.2186 7.89173 11.2094 7.97647V10.2988C11.2117 10.4857 11.2537 10.6699 11.3325 10.8394C11.4114 11.0088 11.5253 11.1596 11.6668 11.2817C11.8082 11.4038 11.974 11.4945 12.1532 11.5477C12.3323 11.601 12.5207 11.6156 12.7059 11.5906C12.8867 11.6163 13.0709 11.6041 13.2466 11.5546C13.4224 11.5051 13.586 11.4196 13.7268 11.3033C13.8677 11.187 13.9827 11.0427 14.0646 10.8794C14.1465 10.7162 14.1934 10.5377 14.2024 10.3553V8.79529C14.191 8.66373 14.2071 8.53125 14.2497 8.40625C14.2922 8.28124 14.3603 8.16645 14.4496 8.06914C14.5388 7.97184 14.6473 7.89415 14.7682 7.841C14.8891 7.78786 15.0197 7.76041 15.1518 7.76041C15.2838 7.76041 15.4144 7.78786 15.5353 7.841C15.6562 7.89415 15.7647 7.97184 15.854 8.06914C15.9432 8.16645 16.0113 8.28124 16.0539 8.40625C16.0964 8.53125 16.1125 8.66373 16.1012 8.79529C16.0988 8.81641 16.0988 8.83771 16.1012 8.85882C16.119 8.99547 16.172 9.12517 16.2549 9.23527C16.3377 9.34537 16.4477 9.43212 16.5741 9.48706V15.84L16.5882 15.7976Z" fill="#2D3440"/>
<path d="M10.9412 22.9412C10.9412 23.222 11.0527 23.4913 11.2513 23.6899C11.4499 23.8884 11.7192 24 12 24C12.2808 24 12.5501 23.8884 12.7487 23.6899C12.9473 23.4913 13.0588 23.222 13.0588 22.9412V17.9153H10.9412V22.9412Z" fill="#2D3440"/>
</svg>

<svg width="24" height="24" fill="none" xmlns="http://www.w3.org/2000/svg"><path d="M12 0a6.007 6.007 0 0 0-5.958 5.294H6V17.21h12V5.294h-.042A6.007 6.007 0 0 0 12 0Zm4.588 15.798H7.412V9.289a1.264 1.264 0 0 0 1.087.452c.91 0 1.503-.508 1.503-1.15v-.615a.605.605 0 0 1 .851-.62.607.607 0 0 1 .356.62V10.3a1.32 1.32 0 0 0 1.497 1.292 1.313 1.313 0 0 0 1.496-1.236v-1.56a.951.951 0 0 1 1.333-.954.953.953 0 0 1 .566.954.281.281 0 0 0 0 .064.797.797 0 0 0 .473.628v6.353l.014-.042ZM10.941 22.941a1.059 1.059 0 1 0 2.118 0v-5.026H10.94v5.026Z" fill="#2D3440"/></svg>
